src/img/social/facebookFooter.svg

<svg width="34" height="34" viewBox="0 0 34 34" fill="none" xmlns="http://www.w3.org/2000/svg">
    <path fill-rule="evenodd" clip-rule="evenodd" d="M17 34C26.3888 34 34 26.3888 34 17C34 7.61116 26.3888 0 17 0C7.61116 0 0 7.61116 0 17C0 26.3888 7.61116 34 17 34Z" fill="white"/>
    <path d="M20.7825 9.2122L18.7834 9.20898C16.5375 9.20898 15.0861 10.7006 15.0861 13.0094V14.7616H13.0761C12.9024 14.7616 12.7617 14.9027 12.7617 15.0767V17.6155C12.7617 17.7895 12.9025 17.9303 13.0761 17.9303H15.0861V24.3365C15.0861 24.5105 15.2267 24.6514 15.4004 24.6514H18.0229C18.1966 24.6514 18.3372 24.5104 18.3372 24.3365V17.9303H20.6874C20.8611 17.9303 21.0017 17.7895 21.0017 17.6155L21.0027 15.0767C21.0027 14.9931 20.9695 14.9131 20.9107 14.854C20.8518 14.7949 20.7716 14.7616 20.6882 14.7616H18.3372V13.2762C18.3372 12.5623 18.5071 12.1999 19.4355 12.1999L20.7822 12.1994C20.9557 12.1994 21.0964 12.0583 21.0964 11.8845V9.52708C21.0964 9.35341 20.9559 9.21252 20.7825 9.2122Z" fill="#12122F"/>
</svg>

<svg width="34" height="34" fill="none" xmlns="http://www.w3.org/2000/svg"><path fill-rule="evenodd" clip-rule="evenodd" d="M17 34c9.389 0 17-7.611 17-17S26.389 0 17 0 0 7.611 0 17s7.611 17 17 17z" fill="#fff"/><path d="M20.782 9.212l-1.999-.003c-2.245 0-3.697 1.492-3.697 3.8v1.753h-2.01a.315.315 0 00-.314.315v2.539c0 .174.14.314.314.314h2.01v6.407c0 .174.14.314.314.314h2.623a.315.315 0 00.314-.314V17.93h2.35c.174 0 .315-.14.315-.314v-2.54a.316.316 0 00-.314-.314h-2.35v-1.486c0-.714.17-1.076 1.098-1.076h1.346a.315.315 0 00.314-.316V9.527a.315.315 0 00-.314-.315z" fill="#12122F"/></svg>
